svgs/brands/square-hacker-news.svg

<svg xmlns="http://www.w3.org/2000/svg" viewBox="0 0 448 512"><!--! Font Awesome Pro 7.1.0 by @fontawesome - https://fontawesome.com License - https://fontawesome.com/license (Commercial License) Copyright 2025 Fonticons, Inc. --><path fill="currentColor" d="M448 96c0-35.3-28.7-64-64-64L64 32C28.7 32 0 60.7 0 96L0 416c0 35.3 28.7 64 64 64l320 0c35.3 0 64-28.7 64-64l0-320zM21 229.2s.1-.1 .1-.2 .1-.2 .2-.2c0 .1 0 .3-.1 .4l-.2 0zM239.2 384l-31.4 0 0-102.7-79.8-153.3 37.3 0c41.5 77.7 48.1 95.8 54.1 112 1.6 4.3 3.1 8.5 5.2 13.6 3.2-7 5.1-11.9 7.1-17.3 5.9-15.3 12.8-33.2 53.5-108.3l34.8 0-80.8 155.1 0 100.9z"/></svg>

<svg xmlns="http://www.w3.org/2000/svg" viewBox="0 0 448 512"><!--! Font Awesome Pro 6.7.2 by @fontawesome - https://fontawesome.com License - https://fontawesome.com/license (Commercial License) Copyright 2024 Fonticons, Inc. --><path d="M448 96c0-35.3-28.7-64-64-64H64C28.7 32 0 60.7 0 96V416c0 35.3 28.7 64 64 64H384c35.3 0 64-28.7 64-64V96zM21 229.2c0 0 .1-.1 .1-.2s.1-.2 .2-.2c0 .1 0 .3-.1 .4H21zM239.2 384H207.8V281.3L128 128h37.3c41.5 77.7 48.1 95.8 54.1 112c1.6 4.3 3.1 8.5 5.2 13.6c3.2-7 5.1-11.9 7.1-17.3c5.9-15.3 12.8-33.2 53.5-108.3H320L239.2 283.1V384z"/></svg>
